X:1
T:Title
%%score { ( 1 4 ) | ( 2 3 ) }
L:1/8
M:4/4
K:Bb
V:1 treble nm="Grand Piano"
V:4 treble 
V:2 bass 
V:3 bass 
V:1
 z4 z2 z[Q:1/4=100] [DF] | [DF]>[DF] [EG]>[DF] [DF]2 [Fd]>[DB] | c>B B>G [DF]4 | A>A A>A B>B B>B | %4
 c>c [=Ed]>[Ed] [Fc]3 [_EF] | [DF]>[DF] [EG]>[DF] [DF]2 [Fd]>[DB] | %6
 [Ec]>[Gc] [Gd]>[Gd] [Ge]3 [Fc] | [Fd]>[Fd] [Fd]>[Fd] [Fd]>[Fc] [FB]>G | F2 c2 [DB]4 | %9
 [DF]>[DF] [B,D]>[CE] [DF] [DB]3 | G>G E>F G c3 | d>c A>G F>E [CFA]>G | F8 | %13
 [B,DF]>[B,DF][K:bass] [F,B,D]>[F,CE][K:treble] [DF] [DB]3 | G>G E>F G c3 | d>c A>G F>F G>A | %16
[M:7/8] B2- [G,EB-]2 [F,DB]2 z |] %17
V:2
 z4 z2 z [B,,B,] | [B,,B,]>[B,,B,] [B,,B,]>[B,,B,] [B,,B,]2 [B,,B,]>[B,,F,] | %2
 [E,G,E]>[E,G,E] [E,G,E]>[E,B,E] [B,,B,]4 | %3
 [F,CE]>[F,CE] [F,CE]>[F,CE] [F,B,D]>[F,B,D] [F,B,D]>[F,B,D] | %4
 [F,A,E]>[F,A,E] [C,B,]>[C,B,] [F,A,]3 [F,A,] | %5
 [B,,B,]>[B,,B,] [B,,B,]>[B,,B,] [B,,B,]2 [B,,B,]>[B,,F,] | %6
 [E,G,]>[E,C] [D,B,]>[D,B,] [C,C]3 [F,A,] | %7
 [B,,B,]>[B,,B,] [B,,B,]>[B,,B,] [B,,B,]>[C,A,] [D,B,]>[E,B,E] | [F,B,D]2 [F,A,E]2 [B,,B,]4 | %9
 [B,,B,]>[B,,B,] [B,,F,]>[B,,F,] [B,,B,] [B,,B,]3 | %10
 [E,B,E]>[E,B,E] [E,G,]>[E,A,D] [E,B,E] [E,G,E]3 | [F,A,E]>[F,A,E] [F,CE]>[F,B,E] D>C z z/ [A,C]/ | %12
 [D,B,]2 D,2 C,2 F,2 | B,,>B,, B,,>B,, [B,,B,] [B,,B,]3 | %14
 [E,B,E]>[E,B,E] [E,G,]>[E,A,D] [E,B,E] [E,G,E]3 | %15
 [F,A,E]>[F,A,E] [F,CE]>[F,B,E] [F,A,E]2 [F,E]->[F,CE] |[M:7/8] B,,2 B,,2 B,,2 z |] %17
V:3
 x8 | x8 | x8 | x8 | x8 | x8 | x8 | x8 | x8 | x8 | x8 | z4 [F,A,]2 E,2 | x8 | x8 | x8 | z4 z2 B,2 | %16
[M:7/8] x7 |] %17
V:4
 x8 | x8 | x8 | x8 | x8 | x8 | x8 | x8 | x8 | x8 | x8 | x8 | z2 B,2 [A,E]4 | %13
 x2[K:bass] x2[K:treble] x4 | x8 | x8 |[M:7/8] [B,D]2 z z z z2 |] %17

